X:115
T: South Bend
C: Kirk Lynch
Z: B.Black
R: reel
M: 4/4
L: 1/8
K: G
E |DG G2 A2 cB |Ae e2 dBGB |g2 gb agfd |egfd eB B2 |
DG G2 A2 cB | Ae e2 dBGB | g2 gb ageg | dBAB G3 :|
f |g3 f ed (3BcB |ABcd BG (3GFG |DG G2 A2 cB |\
Ae e2 dBGB |
g3 f ed (3BcB | ABcd BGBd |g2 gb ageg |dBAB G3 :|
